src/images/pages/home/experienced-trader.svg

<svg xmlns="http://www.w3.org/2000/svg" viewBox="0 0 75 50"><path fill="#fff" d="M11.479 39.199h14.045v8.801h-14.045z"/><path fill="#CDCCCC" d="M24.523 40.199v6.801h-12.044v-6.801h12.044m2-2h-16.044v10.801h16.045v-10.801h-.001z"/><path fill="#fff" d="M30.479 28.692h14.044v19.308h-14.044z"/><path fill="#989898" d="M43.523 29.692v17.308h-12.044v-17.308h12.044m2-2h-16.044v21.308h16.044v-21.308z"/><path fill="#fff" d="M49.478 22.026h14.043v25.974h-14.043z"/><path fill="#676767" d="M62.521 23.026v23.974h-12.043v-23.974h12.043m2-2h-16.043v27.974h16.043v-27.974z"/><path fill="#424143" d="M48.892 16.939c0 .49.043.969.109 1.436h15.127c.068-.467.109-.945.109-1.436 0-3.797-2.119-7.027-5.076-8.242 1.314-.787 2.184-2.154 2.184-3.709 0-2.439-2.139-4.416-4.779-4.416-2.643 0-4.781 1.977-4.781 4.416 0 1.555.871 2.922 2.184 3.709-2.958 1.215-5.077 4.446-5.077 8.242"/></svg>

<svg xmlns="http://www.w3.org/2000/svg" viewBox="0 0 75 50"><path fill="#fff" d="M11.48 39.2h14.044V48H11.48z"/><path fill="#CDCCCC" d="M24.523 40.2V47H12.48v-6.8h12.043m2-2H10.48V49h16.044V38.2z"/><path fill="#fff" d="M30.48 28.692h14.043V48H30.48z"/><path fill="#989898" d="M43.523 29.692V47H31.48V29.692h12.043m2-2H29.48V49h16.043V27.692z"/><path fill="#fff" d="M49.478 22.026H63.52V48H49.48z"/><path fill="#676767" d="M62.52 23.026V47H50.48V23.026H62.52m2-2H48.48V49H64.52V21.026z"/><path fill="#424143" d="M48.892 16.94c0 .49.043.968.11 1.435h15.126c.068-.467.11-.945.11-1.436 0-3.798-2.12-7.028-5.077-8.243 1.315-.787 2.185-2.154 2.185-3.71 0-2.438-2.14-4.415-4.78-4.415-2.642 0-4.78 1.977-4.78 4.416 0 1.555.87 2.922 2.184 3.71-2.96 1.214-5.078 4.445-5.078 8.24"/></svg>
